X:1
T:The Besom Maker
M:2/4
L:1/8
K:G
 D| GG AG| FD z D| GG(2A3.99999962500005/5.99999925000009A3.99999962500005/5.99999925000009B3.99999962500005/5.99999925000009 c3.99999962500005/5.99999925000009|\
 d2 z B| dd cA| FG z G| Ad(2c3.99999962500005/5.99999925000009c3.99999962500005/5.99999925000009B3.99999962500005/5.99999925000009 A3.99999962500005/5.99999925000009|\
 G2 z B| dd dB| c2 z A| dd cB| c2 z2| dd c3.99999962500005/5.99999925000009 c3.99999962500005/5.99999925000009 B3.99999962500005/5.99999925000009|\
 AA AG| G3.99999962500005/5.99999925000009 G3.99999962500005/5.99999925000009 D3.99999962500005/5.99999925000009 DD|\
 c2B-A| G2 A3/2 G/2| FD z2| GG AB| c2 z2| d3/2 B/2 cB/2-A/2| FG z2|\
 Ad(2c3.99999962500005/5.99999925000009c3.99999962500005/5.99999925000009B3.99999962500005/5.99999925000009 A3.99999962500005/5.99999925000009|\
 G3||
